actions/22x22-dark/exchange-positions.svg

<svg xmlns="http://www.w3.org/2000/svg" viewBox="0 0 22 22">
 <defs id="defs3051">
   <style type="text/css" id="current-color-scheme">
     .ColorScheme-Text {
       color:#f2f2f2;
     }
     </style>
 </defs>
   <path
      style="fill:currentColor;fill-opacity:1;stroke:none"
      d="m3 3v7h8v-7zm1 1h6v5h-6zm8 .078125v1.0117188 2.9101562h1v-2.6445312a6 6 0 0 1 4 5.6445312h1a7 7 0 0 0 -6-6.921875zm-8 6.921875a7 7 0 0 0 6 6.921875v-1.011719-2.910156h-1v2.644531a6 6 0 0 1 -4-5.644531zm7 1v7h8v-7zm1 1h6v5h-6z"
      class="ColorScheme-Text" />
</svg>

<svg xmlns="http://www.w3.org/2000/svg" viewBox="0 0 22 22">
  <defs id="defs3051">
    <style type="text/css" id="current-color-scheme">
      .ColorScheme-Text {
        color:#f2f2f2;
      }
      </style>
  </defs>
 <path 
    style="fill:currentColor;fill-opacity:1;stroke:none" 
    d="M 3 3 L 3 10 L 11 10 L 11 3 L 3 3 z M 4 4 L 10 4 L 10 9 L 4 9 L 4 4 z M 12 4.078125 L 12 5.0898438 L 12 8 L 13 8 L 13 5.3554688 A 6 6 0 0 1 17 11 L 18 11 A 7 7 0 0 0 12 4.078125 z M 4 11 A 7 7 0 0 0 10 17.921875 L 10 16.910156 L 10 14 L 9 14 L 9 16.644531 A 6 6 0 0 1 5 11 L 4 11 z M 11 12 L 11 19 L 19 19 L 19 12 L 11 12 z M 12 13 L 18 13 L 18 18 L 12 18 L 12 13 z "
    class="ColorScheme-Text"
    />  
</svg>
